X:1
T:Jesu Der Du Meine Seele, 87.87.88.77
T:Jesu Der Du Meine Seele, 87.87.88.77
T:From a 17th Century German chorale
T:Public Domain Courtesy of the Cyber Hymnal™
C:From a 17th Century German chorale
Z:Public Domain
Z:Courtesy of the Cyber Hymnal™
%%score ( 1 2 ) ( 3 4 )
L:1/8
Q:1/4=108
M:none
K:F
V:1 treble 
V:2 treble 
V:3 bass 
V:4 bass 
V:1
|: [^Fd]2 [Ec]2 [DA]2 [DB]2 | [_Ec]2 [DB]2 [DA]2 [=B,G]2 | %2
 [GB]2 [_Ec]2 [FA]2 [DB]2 [EG]2 [DB]2 [DA]4 | [CA]2 [FB]2 [Fc]2 [DF]2 :| [FB]2 [FA]2 [EG]2 F2 | %5
 [DB]2 [Fc]2 [Fd]2 [DB]2 | [G_e]2 [Fd]2 [Fc]2 [DB]2 | [DA]2 [DB]2 [Fc]2 [Fd]2 | %8
 [GB]2 [_Ec]2 [DA]4 | [^Fd]2 [Ec]2 A2 z x3 | [DA]2 [DA]2 [=B,G]4 |] x8 |] %12
V:2
|: x8 | x8 | x16 | x8 :| x6 F2 | x8 | x8 | x8 | x8 | x4 D3 B2 C | x8 |] x8 |] %12
V:3
|: [D,A,]2 [E,G,]2 [^F,A,]2 G,2 | [C,G,]2 G,2 [D,^F,]2 [G,,G,]2 | %2
 [_E,G,]2 [C,G,]2 [D,F,]2 [B,,F,]2 x8 | [C,_E,]2 [G,,G,]2 [D,^F,]4 :| %4
 [F,A,]2 [D,D]2 [A,,C]2 [D,A,]2 | [B,,D]2 [F,,C]2 [C,C]2 [F,,A,]2 | %6
 [G,B,]2 [F,A,]2 [D,A,]2 [G,B,]2 | [_E,B,]2 [B,,B,]2 [F,A,]2 [B,,B,]2 | %8
 [D,F,]2 G,2 [F,A,]2 [D,A,]2 | [_E,G,]2 [C,G,]2 [D,^F,]4 x2 | [D,A,]2 [E,G,]2 [^F,A,]2 G,2 |] %11
 [D,G,]2 [D,^F,]2 [G,,G,]4 |] %12
V:4
|: x6 G,2 | x2 G,2 x4 | x16 | x8 :| x8 | x8 | x8 | x8 | x2 G,2 x4 | x10 | x6 G,2 |] x8 |] %12

